X:1
T:Alle Menschen Müssen Sterben
T:Alle Menschen Müssen Sterben
T:Attributed to Johann Rosenmüller, 1768
T:Public Domain Courtesy of the Cyber Hymnal™
C:Attributed to Johann Rosenmüller, 1768
Z:Public Domain
Z:Courtesy of the Cyber Hymnal™
%%score ( 1 2 ) ( 3 4 )
L:1/8
Q:1/4=110
M:4/4
K:C
V:1 treble 
V:2 treble 
V:3 bass 
V:4 bass 
V:1
 [CG]2 [Ec]2 G2 [FA]2 | [DG]3 [DF] [CE]2 [CE]2 | [EG]2 [CG]2 [CF]2 [CE]2 | [CD]2 [B,D]2 C4 | %4
 [CG]2 [Ec]2 G2 [FA]2 | [DG]3 [DF] [CE]2 [CE]2 | [EG]2 [CG]2 [CF]2 [CE]2 | [CD]2 [B,D]2 C4 | %8
 [B,D]2 [B,D]2 [CE]2 [DG]2 | [EG]2 [D^F]2 [DG]2 [DG]2 | [FA]2 [FB]2 [Ec]2 [Ec]2 | %11
 [EB]2 [EB]2 [CA]2 [CA]2 | [CE]2 [CE]2 [EA]2 [DG]2 | [EG]2 [D^F]2 [DG]4 | [FA]2 [FB]2 [Ec]2 [Ge]2 | %15
 [Gd]4 [Gd]4 | [Ec]8 |] %17
V:2
 x4 G2 x2 | x8 | x8 | x4 C4 | x4 G2 x2 | x8 | x8 | x4 C4 | x8 | x8 | x8 | x8 | x8 | x8 | x8 | x8 | %16
 x8 |] %17
V:3
 [C,E,]2 [C,G,]2 [E,C]2 [F,C]2 | [G,B,]3 [B,,G,] [C,G,]2 [C,G,]2 | [C,C]2 [E,G,]2 [F,A,]2 [C,G,]2 | %3
 [G,,G,]2 [G,,G,]2 [C,E,]4 | [C,E,]2 [C,G,]2 [E,C]2 [F,C]2 | [G,B,]3 [B,,G,] [C,G,]2 [C,G,]2 | %6
 [C,C]2 [E,G,]2 [F,A,]2 [C,G,]2 | G,,2 [G,,G,]2 [C,E,]4 | [G,,G,]2 [G,,G,]2 [C,G,]2 [B,,B,]2 | %9
 [C,A,]2 [D,A,]2 [G,B,]2 [G,B,]2 | [F,C]2 [D,F,]2 [C,G,]2 [A,,A,]2 | %11
 [E,A,]2 [E,^G,]2 [A,,A,]2 [A,,A,]2 | [C,G,]2 [C,G,]2 [A,,C]2 [B,,B,]2 | [C,A,]2 [D,A,]2 [G,B,]4 | %14
 [F,C]2 [D,G,]2 [C,G,]2 [C,C]2 | [G,C]4 [G,B,]4 | [C,G,]8 |] %17
V:4
 x8 | x8 | x8 | x8 | x8 | x8 | x8 | G,,2 x6 | x8 | x8 | x8 | x8 | x8 | x8 | x8 | x8 | x8 |] %17

